app/assets/icons/polaris/LandingPageMajor.svg

<svg viewBox="0 0 20 20" xmlns="http://www.w3.org/2000/svg"><path d="M11 7c0-.552-.449-1-1-1h-9a1 1 0 0 1 0-2h9c1.654 0 3 1.346 3 3v5.586l1.293-1.293a1 1 0 0 1 1.414 1.414l-3 3a.998.998 0 0 1-1.414 0l-3-3a1 1 0 1 1 1.414-1.414l1.293 1.293v-5.586zm8.56-2.853a1.5 1.5 0 0 1 .44 1.06v13.293a1.5 1.5 0 0 1-1.5 1.5h-13a1.5 1.5 0 0 1-1.5-1.5v-10.5h2v10h12v-12.586l-3.414-3.414h-10.586v-.5a1.5 1.5 0 0 1 1.5-1.5h9.293a1.5 1.5 0 0 1 1.06.44l3.708 3.707z"/></svg>

<svg viewBox="0 0 20 20" xmlns="http://www.w3.org/2000/svg"><path d="M11 7c0-.552-.449-1-1-1H1a1 1 0 0 1 0-2h9c1.654 0 3 1.346 3 3v5.586l1.293-1.293a1 1 0 0 1 1.414 1.414l-3 3a.998.998 0 0 1-1.414 0l-3-3a1 1 0 1 1 1.414-1.414L11 12.586V7zm8.56-2.853a1.5 1.5 0 0 1 .44 1.06V18.5a1.5 1.5 0 0 1-1.5 1.5h-13A1.5 1.5 0 0 1 4 18.5V8h2v10h12V5.414L14.586 2H4v-.5A1.5 1.5 0 0 1 5.5 0h9.293a1.5 1.5 0 0 1 1.06.44l3.708 3.707z"/></svg>
